Numix-Circle/48x48/apps/steam_icon_245470.svg

<?xml version="1.0" encoding="UTF-8" standalone="no"?>
<svg
   xmlns:dc="http://purl.org/dc/elements/1.1/"
   xmlns:cc="http://creativecommons.org/ns#"
   xmlns:rdf="http://www.w3.org/1999/02/22-rdf-syntax-ns#"
   xmlns:svg="http://www.w3.org/2000/svg"
   xmlns="http://www.w3.org/2000/svg"
   xmlns:sodipodi="http://sodipodi.sourceforge.net/DTD/sodipodi-0.dtd"
   xmlns:inkscape="http://www.inkscape.org/namespaces/inkscape"
   viewBox="0 0 48 48"
   id="svg2"
   version="1.1"
   inkscape:version="0.91 r13725"
   width="100%"
   height="100%"
   sodipodi:docname="steam_icon_245470.svg">
  <metadata
     id="metadata73">
    <rdf:RDF>
      <cc:Work
         rdf:about="">
        <dc:format>image/svg+xml</dc:format>
        <dc:type
           rdf:resource="http://purl.org/dc/dcmitype/StillImage" />
      </cc:Work>
    </rdf:RDF>
  </metadata>
  <sodipodi:namedview
     pagecolor="#ffffff"
     bordercolor="#666666"
     borderopacity="1"
     objecttolerance="10"
     gridtolerance="10"
     guidetolerance="10"
     inkscape:pageopacity="0"
     inkscape:pageshadow="2"
     inkscape:window-width="1280"
     inkscape:window-height="998"
     id="namedview71"
     showgrid="true"
     inkscape:zoom="4"
     inkscape:cx="2.5535902"
     inkscape:cy="6.1901969"
     inkscape:window-x="0"
     inkscape:window-y="0"
     inkscape:window-maximized="1"
     inkscape:current-layer="svg2">
    <inkscape:grid
       type="xygrid"
       id="grid3877" />
  </sodipodi:namedview>
  <defs
     id="defs4">
    <linearGradient
       id="linearGradient3764"
       x1="1"
       x2="47"
       gradientUnits="userSpaceOnUse"
       gradientTransform="matrix(0,-1,1,0,-1.5e-6,47.999998)">
      <stop
         stop-color="#708290"
         stop-opacity="1"
         id="stop7" />
      <stop
         offset="1"
         stop-color="#7b8c99"
         stop-opacity="1"
         id="stop9" />
    </linearGradient>
  </defs>
  <g
     id="g21">
    <path
       d="m 36.31 5 c 5.859 4.062 9.688 10.831 9.688 18.5 c 0 12.426 -10.07 22.5 -22.5 22.5 c -7.669 0 -14.438 -3.828 -18.5 -9.688 c 1.037 1.822 2.306 3.499 3.781 4.969 c 4.085 3.712 9.514 5.969 15.469 5.969 c 12.703 0 23 -10.298 23 -23 c 0 -5.954 -2.256 -11.384 -5.969 -15.469 c -1.469 -1.475 -3.147 -2.744 -4.969 -3.781 z m 4.969 3.781 c 3.854 4.113 6.219 9.637 6.219 15.719 c 0 12.703 -10.297 23 -23 23 c -6.081 0 -11.606 -2.364 -15.719 -6.219 c 4.16 4.144 9.883 6.719 16.219 6.719 c 12.703 0 23 -10.298 23 -23 c 0 -6.335 -2.575 -12.06 -6.719 -16.219 z"
       opacity="0.05"
       id="path23" />
    <path
       d="m 41.28 8.781 c 3.712 4.085 5.969 9.514 5.969 15.469 c 0 12.703 -10.297 23 -23 23 c -5.954 0 -11.384 -2.256 -15.469 -5.969 c 4.113 3.854 9.637 6.219 15.719 6.219 c 12.703 0 23 -10.298 23 -23 c 0 -6.081 -2.364 -11.606 -6.219 -15.719 z"
       opacity="0.1"
       id="path25" />
    <path
       d="m 31.25 2.375 c 8.615 3.154 14.75 11.417 14.75 21.13 c 0 12.426 -10.07 22.5 -22.5 22.5 c -9.708 0 -17.971 -6.135 -21.12 -14.75 a 23 23 0 0 0 44.875 -7 a 23 23 0 0 0 -16 -21.875 z"
       opacity="0.2"
       id="path27" />
  </g>
  <g
     id="g29">
    <path
       d="m 24 1 c 12.703 0 23 10.297 23 23 c 0 12.703 -10.297 23 -23 23 -12.703 0 -23 -10.297 -23 -23 0 -12.703 10.297 -23 23 -23 z"
       id="path31"
       fill-opacity="1"
       fill="url(#linearGradient3764)" />
  </g>
  <path
     style="fill:#000000;fill-opacity:0.09803922;stroke:none"
     d="m 31.96875,12.15625 -9.625,0.71875 C 20.774795,14.920961 20.511595,17.308814 20.5,18.96875 L 15,19.40625 15,36.625 29,38 l 5,-2.625 0,-14 -4.125,-2.5625 0.21875,0 c 0.05067,-2.622255 0.928916,-4.618449 1.875,-6.65625 z"
     id="path3965"
     inkscape:connector-curvature="0" />
  <g
     id="g33" />
  <g
     id="g67">
    <path
       d="m 40.03 7.531 c 3.712 4.084 5.969 9.514 5.969 15.469 0 12.703 -10.297 23 -23 23 c -5.954 0 -11.384 -2.256 -15.469 -5.969 4.178 4.291 10.01 6.969 16.469 6.969 c 12.703 0 23 -10.298 23 -23 0 -6.462 -2.677 -12.291 -6.969 -16.469 z"
       opacity="0.1"
       id="path69" />
  </g>
  <path
     style="fill:#f9dfbd;fill-opacity:1;stroke:#d7a16c;stroke-width:0.32668242;stroke-linecap:butt;stroke-linejoin:miter;stroke-miterlimit:4;stroke-opacity:1;stroke-dasharray:none"
     d="m 19.163939,18.236845 c -0.01391,-1.661408 0.203403,-4.213951 1.854892,-6.367538 l 9.634362,-0.705966 c -0.946084,2.037801 -1.845751,4.022132 -1.896419,6.644387 z"
     id="path3847"
     inkscape:connector-curvature="0"
     sodipodi:nodetypes="ccccc" />
  <path
     style="fill:#252525;fill-opacity:1;stroke:none"
     d="M 14,35.618198 28,37 33,34.381483 33,20.38732 28,17.287637 14,18.401366 z"
     id="path3835"
     inkscape:connector-curvature="0"
     sodipodi:nodetypes="ccccccc" />
  <path
     style="fill:#adadae;fill-opacity:1;stroke:none"
     d="M 20,18.199413 22,18 22,20.896005 20,21 z"
     id="path3837"
     inkscape:connector-curvature="0"
     sodipodi:nodetypes="ccccc" />
  <path
     style="fill:none;stroke:#000000;stroke-width:0.21778826;stroke-linecap:butt;stroke-linejoin:miter;stroke-miterlimit:4;stroke-opacity:0.23529412;stroke-dasharray:none"
     d="m 14.237844,20.711772 14.262783,-1.132207 4.323885,2.55888"
     id="path3873"
     inkscape:connector-curvature="0"
     sodipodi:nodetypes="ccc" />
  <path
     style="fill:#5c5c5c;fill-opacity:1;stroke:none"
     d="m 21.035955,18.512556 c -0.259251,0 -0.512879,0.189519 -0.512879,0.44877 0.0072,0.182075 0.08745,0.370221 0.192329,0.384659 l 0,1.21809 0.57699,0 0,-1.21809 c 0.112002,-0.0858 0.19233,-0.232683 0.19233,-0.384658 0,-0.259252 -0.189521,-0.44877 -0.44877,-0.448771 z"
     id="path3839"
     inkscape:connector-curvature="0"
     sodipodi:nodetypes="scccccss" />
  <path
     style="fill:none;stroke:#2d2d2d;stroke-width:0.87115306;stroke-linecap:butt;stroke-linejoin:miter;stroke-miterlimit:4;stroke-opacity:1;stroke-dasharray:none"
     d="m 23.212802,16.160473 2.588542,-2.726967"
     id="path3869"
     inkscape:connector-curvature="0"
     sodipodi:nodetypes="cc" />
  <path
     style="fill:none;stroke:#2d2d2d;stroke-width:0.87115306;stroke-linecap:butt;stroke-linejoin:miter;stroke-miterlimit:4;stroke-opacity:1;stroke-dasharray:none"
     d="m 23.012146,13.613458 2.270166,2.630071"
     id="path3871"
     inkscape:connector-curvature="0" />
  <path
     style="fill:none;stroke:#000000;stroke-width:0.21778826;stroke-linecap:butt;stroke-linejoin:miter;stroke-miterlimit:4;stroke-opacity:0.23529412;stroke-dasharray:none"
     d="M 32.84556,20.790421 28,17.801583 14.231729,19"
     id="path3875"
     inkscape:connector-curvature="0"
     sodipodi:nodetypes="ccc" />
  <path
     style="fill:#f9f9f9;fill-opacity:1;stroke:none"
     d="m 19.002418,29.717648 1.350759,0.0098 c -0.0038,1.620115 0.28323,1.718591 0.763473,1.732496 0.622382,-0.01283 0.695886,-0.861589 0.675379,-1.761861 0.0052,-1.311583 -0.002,-1.771664 -1.125633,-1.742283 l -0.0098,-1.34097 c 0.899348,0.02344 1.197263,-0.172619 1.184361,-1.693343 0.0014,-0.819645 0.0028,-1.486247 -0.704743,-1.478004 -0.86907,0.0047 -0.696587,1.048959 -0.714532,1.683554 l -1.370336,0.01958 c -0.02162,-1.427894 0.261063,-3.260088 2.172961,-3.25944 2.037847,2.72e-4 2.054741,1.792827 2.035926,3.093042 0.0168,0.900084 0.04761,1.871976 -0.88093,2.349146 0.974181,0.340457 0.852447,1.668532 0.851566,2.603637 0.06644,2.725191 -1.351227,3.134937 -2.143596,3.141982 -0.520596,0.01111 -2.081165,-0.500241 -2.084867,-2.2219 z"
     id="path3879"
     inkscape:connector-curvature="0"
     sodipodi:nodetypes="ccccccccccccccccc" />
</svg>

<svg xmlns="http://www.w3.org/2000/svg" viewBox="0 0 48 48"><defs><linearGradient id="linearGradient3764" x1="1" x2="47" gradientUnits="userSpaceOnUse" gradientTransform="matrix(0,-1,1,0,-1.5e-6,47.999998)"><stop stop-color="#708290" stop-opacity="1"/><stop offset="1" stop-color="#7b8c99" stop-opacity="1"/></linearGradient></defs><g><path d="m 36.31 5 c 5.859 4.062 9.688 10.831 9.688 18.5 c 0 12.426 -10.07 22.5 -22.5 22.5 c -7.669 0 -14.438 -3.828 -18.5 -9.688 c 1.037 1.822 2.306 3.499 3.781 4.969 c 4.085 3.712 9.514 5.969 15.469 5.969 c 12.703 0 23 -10.298 23 -23 c 0 -5.954 -2.256 -11.384 -5.969 -15.469 c -1.469 -1.475 -3.147 -2.744 -4.969 -3.781 z m 4.969 3.781 c 3.854 4.113 6.219 9.637 6.219 15.719 c 0 12.703 -10.297 23 -23 23 c -6.081 0 -11.606 -2.364 -15.719 -6.219 c 4.16 4.144 9.883 6.719 16.219 6.719 c 12.703 0 23 -10.298 23 -23 c 0 -6.335 -2.575 -12.06 -6.719 -16.219 z" opacity="0.05"/><path d="m 41.28 8.781 c 3.712 4.085 5.969 9.514 5.969 15.469 c 0 12.703 -10.297 23 -23 23 c -5.954 0 -11.384 -2.256 -15.469 -5.969 c 4.113 3.854 9.637 6.219 15.719 6.219 c 12.703 0 23 -10.298 23 -23 c 0 -6.081 -2.364 -11.606 -6.219 -15.719 z" opacity="0.1"/><path d="m 31.25 2.375 c 8.615 3.154 14.75 11.417 14.75 21.13 c 0 12.426 -10.07 22.5 -22.5 22.5 c -9.708 0 -17.971 -6.135 -21.12 -14.75 a 23 23 0 0 0 44.875 -7 a 23 23 0 0 0 -16 -21.875 z" opacity="0.2"/></g><g><path d="m 24 1 c 12.703 0 23 10.297 23 23 c 0 12.703 -10.297 23 -23 23 -12.703 0 -23 -10.297 -23 -23 0 -12.703 10.297 -23 23 -23 z" fill-opacity="1" fill="url(#linearGradient3764)"/></g><path d="m 31.969 12.156 -9.625 0.719 c -1.569 2.046 -1.832 4.434 -1.844 6.094 l -5.5 0.438 0 17.219 14 1.375 l 5 -2.625 0 -14 -4.125 -2.563 0.219 0 c 0.051 -2.622 0.929 -4.618 1.875 -6.656 z" fill="#000" stroke="none" fill-opacity="0.098"/><g><path d="m 40.03 7.531 c 3.712 4.084 5.969 9.514 5.969 15.469 0 12.703 -10.297 23 -23 23 c -5.954 0 -11.384 -2.256 -15.469 -5.969 4.178 4.291 10.01 6.969 16.469 6.969 c 12.703 0 23 -10.298 23 -23 0 -6.462 -2.677 -12.291 -6.969 -16.469 z" opacity="0.1"/></g><path d="m 19.16 18.237 c -0.014 -1.661 0.203 -4.214 1.855 -6.368 l 9.634 -0.706 c -0.946 2.038 -1.846 4.02 -1.896 6.644 z" stroke-opacity="1" stroke-dasharray="none" fill="#f9dfbd" stroke="#d7a16c" stroke-linejoin="miter" fill-opacity="1" stroke-linecap="butt" stroke-width="0.327" stroke-miterlimit="4"/><path d="m 14 35.618 14 1.382 5 -2.619 0 -13.994 -5 -3.1 -14 1.114 z" fill="#252525" stroke="none" fill-opacity="1"/><path d="m 20 18.199 2 -0.199 0 2.896 -2 0.104 z" fill="#adadae" stroke="none" fill-opacity="1"/><path d="m 14.238 20.712 14.263 -1.132 4.324 2.559" stroke-opacity="0.235" stroke-dasharray="none" fill="none" stroke="#000" stroke-linejoin="miter" stroke-linecap="butt" stroke-width="0.218" stroke-miterlimit="4"/><path d="m 21.04 18.513 c -0.259 0 -0.513 0.19 -0.513 0.449 0.007 0.182 0.087 0.37 0.192 0.385 l 0 1.218 0.577 0 0 -1.218 c 0.112 -0.086 0.192 -0.233 0.192 -0.385 0 -0.259 -0.19 -0.449 -0.449 -0.449 z" fill="#5c5c5c" stroke="none" fill-opacity="1"/><path d="m 23.21 16.16 2.589 -2.727" stroke-opacity="1" stroke-dasharray="none" fill="none" stroke="#2d2d2d" stroke-linejoin="miter" stroke-linecap="butt" stroke-width="0.871" stroke-miterlimit="4"/><path d="m 23.01 13.613 2.27 2.63" stroke-opacity="1" stroke-dasharray="none" fill="none" stroke="#2d2d2d" stroke-linejoin="miter" stroke-linecap="butt" stroke-width="0.871" stroke-miterlimit="4"/><path d="m 32.846 20.79 -4.846 -2.989 -13.768 1.198" stroke-opacity="0.235" stroke-dasharray="none" fill="none" stroke="#000" stroke-linejoin="miter" stroke-linecap="butt" stroke-width="0.218" stroke-miterlimit="4"/><path d="m 19 29.718 1.351 0.001 c -0.004 1.62 0.283 1.719 0.763 1.732 0.622 -0.013 0.696 -0.862 0.675 -1.762 0.005 -1.312 -0.002 -1.772 -1.126 -1.742 l -0.001 -1.341 c 0.899 0.023 1.197 -0.173 1.184 -1.693 0.0001 -0.82 0.003 -1.486 -0.705 -1.478 -0.869 0.005 -0.697 1.049 -0.715 1.684 l -1.37 0.02 c -0.022 -1.428 0.261 -3.26 2.173 -3.259 2.038 0 2.055 1.793 2.036 3.093 0.017 0.9 0.048 1.872 -0.881 2.349 0.974 0.34 0.852 1.669 0.852 2.604 0.066 2.725 -1.351 3.135 -2.144 3.142 -0.521 0.011 -2.081 -0.5 -2.085 -2.222 z" fill="#f9f9f9" stroke="none" fill-opacity="1"/></svg>
